X:137
T:Lonely Nancy sad lamenting - Burgoyne
%%VWML:SBG-1-2-815-0
F:http://www.vwml.org/record/SBG/1/2/815
Z:Original Sibelius transcriptions by M. & S. Graebe
M:3/4
I:linebreak $
K:A
V:1 treble nm="P1"
V:1
 A,A, A, | A3 A A A | B2 E/ z/ E A A | C3 (B,/A,/) C E | B,2 z A, A, A, |$ A3 A A A | B2 E E A A | %7
w: |||||||
 C3 (B,/A,/) C E | B,3 C/D/ E E | A,3 E F F |$ D3 C D C | B,3 A3/2 B/ (c/B/) | (A3 G/) F E | %13
w: |* And _ sing- ing|as her fingers _|knit The pretty _|maid _ doth hourly _|_ _ sit A|
 A A C3 B,/A,/ | B, A, x4 | %15
w: ||

